lib/logo_tmp/nrk-logo-nrk-p3-urort-on-light.svg

<svg width="103" height="24" viewBox="0 0 103 24" fill="none" xmlns="http://www.w3.org/2000/svg">
<path d="M71.0455 13.2489C71.0528 13.7531 70.9931 14.256 70.8681 14.7444C70.7684 15.1415 70.5807 15.5111 70.3189 15.8259C70.0566 16.1229 69.7219 16.347 69.3473 16.4765C68.8822 16.6332 68.3932 16.7076 67.9025 16.6961C67.3307 16.7091 66.762 16.6086 66.2293 16.4004C65.7613 16.208 65.3776 15.8543 65.1479 15.4034C64.8734 14.8087 64.7459 14.1567 64.7761 13.5024V6H63.0018V13.7908C62.9828 14.4917 63.1125 15.1886 63.3823 15.8357C63.6126 16.3694 63.9728 16.8371 64.43 17.196C64.8901 17.5472 65.4158 17.8028 65.9762 17.948C66.5827 18.1082 67.2076 18.1876 67.8349 18.1843C68.7773 18.2211 69.7135 18.0175 70.5555 17.5928C71.2435 17.2211 71.7964 16.6415 72.1355 15.9368C72.4946 15.1531 72.6707 14.2979 72.6506 13.4359V6.00085H71.0453L71.0455 13.2489Z" fill="black"/>
<path d="M78.7003 9.32045C78.3842 9.40497 78.0824 9.53595 77.8047 9.7091C77.5164 9.88893 77.2499 10.1016 77.0105 10.3428C76.9705 10.3825 76.9317 10.4273 76.8922 10.4689V9.21033L75.1686 9.4638V17.9973H76.8922V11.6135C77.0203 11.5239 77.1528 11.4409 77.2893 11.3648C77.4584 11.2719 77.6334 11.19 77.8132 11.1198C77.9876 11.0522 78.165 10.9931 78.3455 10.9424C78.5309 10.8907 78.7202 10.854 78.9115 10.8325C79.1163 10.8101 79.3226 10.8044 79.5283 10.8156L79.7311 9.22751C79.3847 9.20247 79.0366 9.23386 78.7003 9.32045Z" fill="black"/>
<path d="M88.5518 8.99066L87.6055 9.98932C87.4811 9.89665 87.3514 9.81145 87.2169 9.73417C86.5105 9.35811 85.7187 9.17188 84.9188 9.19371C84.1145 9.17545 83.3194 9.36758 82.6122 9.75106C81.9594 10.1164 81.4256 10.662 81.0745 11.3226C80.6928 12.0637 80.5039 12.889 80.5253 13.7224C80.5036 14.55 80.6834 15.3704 81.0491 16.1131C81.146 16.2971 81.2574 16.473 81.3823 16.6392L80.4408 17.6427L81.2181 18.3521L82.1193 17.3782C82.2493 17.4753 82.3855 17.5637 82.5271 17.6427C83.2168 18.0047 83.9874 18.1849 84.7661 18.1662C85.5757 18.1833 86.3759 17.9912 87.0896 17.6086C87.7565 17.2402 88.3046 16.6893 88.6695 16.0205C89.0673 15.2722 89.2652 14.434 89.2441 13.5869C89.2635 12.7801 89.0805 11.9813 88.7118 11.2634C88.6115 11.0795 88.4968 10.9039 88.3688 10.7382L89.3455 9.70037L88.5518 8.99066ZM82.6544 11.9143C82.8439 11.4911 83.1597 11.137 83.5585 10.9004C83.9792 10.6669 84.4547 10.5503 84.9357 10.5624C85.3181 10.5537 85.6981 10.6257 86.0509 10.7737C86.2409 10.8591 86.4163 10.9739 86.5705 11.1139L82.6392 15.3598C82.4201 14.807 82.3161 14.2153 82.3334 13.621C82.3133 13.0354 82.423 12.4526 82.6544 11.9143ZM87.1155 15.395C86.9222 15.8319 86.6011 16.2001 86.1946 16.4511C85.7868 16.6872 85.3222 16.8071 84.8512 16.7978C84.3842 16.8087 83.9239 16.6855 83.5247 16.4429C83.4122 16.3706 83.3071 16.2875 83.2107 16.1948L87.1439 11.9481C87.2025 12.0827 87.2523 12.221 87.2929 12.3621C87.4042 12.7722 87.4582 13.1958 87.4535 13.6207C87.4735 14.2302 87.3581 14.8366 87.1155 15.3961V15.395Z" fill="black"/>
<path d="M94.939 9.32045C94.6229 9.40503 94.3211 9.536 94.0434 9.7091C93.7551 9.889 93.4886 10.1016 93.2492 10.3428C93.2092 10.3825 93.1703 10.4273 93.1309 10.4689V9.21033L91.4073 9.4638V17.9973H93.1309V11.6135C93.259 11.5239 93.3915 11.4409 93.528 11.3648C93.6971 11.2719 93.8721 11.19 94.0518 11.1198C94.2264 11.0522 94.4039 10.9931 94.5841 10.9424C94.7696 10.8908 94.9589 10.8541 95.1502 10.8325C95.355 10.8101 95.5613 10.8044 95.767 10.8156L95.9697 9.22751C95.6234 9.20249 95.2753 9.23387 94.939 9.32045Z" fill="black"/>
<path d="M102.273 16.5866C102.194 16.6032 102.107 16.6204 102.011 16.637L101.724 16.6877C101.631 16.7041 101.538 16.7154 101.445 16.7215C101.355 16.7274 101.27 16.7299 101.191 16.7299C100.932 16.7371 100.675 16.6851 100.439 16.5778C100.236 16.4818 100.068 16.3254 99.9577 16.13C99.8393 15.9097 99.781 15.6621 99.7887 15.4122V10.7311H102.171L102.357 9.37931H99.7887V6.70915L98.0651 7.31748V9.37931H96.7639L96.5781 10.7311H98.0651V15.7667C98.0575 16.1026 98.109 16.4372 98.2172 16.7553C98.3042 17.0069 98.4391 17.2393 98.6146 17.4396C98.7753 17.6181 98.9708 17.7619 99.1891 17.8621C99.4125 17.9647 99.648 18.0385 99.8901 18.0818C100.13 18.1259 100.373 18.1485 100.617 18.1493C100.797 18.1493 100.974 18.1437 101.149 18.1327C101.324 18.1217 101.484 18.1046 101.631 18.0818C101.778 18.0589 101.915 18.0336 102.045 18.006C102.174 17.9784 102.284 17.9525 102.374 17.9297L102.476 16.5274C102.41 16.5525 102.342 16.5723 102.273 16.5866Z" fill="black"/>
<path d="M46.4809 5.99988H42.7773C42.7773 5.99988 44.8818 9.45473 44.9056 9.49821C44.9849 9.59812 45.0292 9.72132 45.0317 9.84885C45.0342 9.97639 44.9947 10.1012 44.9194 10.2042L42.7773 13.7155H46.4815C46.4815 13.7155 48.2678 10.7946 48.512 10.3891C48.6279 10.2338 48.6897 10.0447 48.6879 9.85092C48.6861 9.65713 48.6209 9.46925 48.5022 9.31608C48.2387 8.86738 48.2381 8.86768 46.4809 5.99988Z" fill="black"/>
<path d="M42.2987 5.99992H39V18.0011H42.2987V5.99992Z" fill="black"/>
<path d="M58.082 7.98808C57.9575 7.77574 56.8551 5.99988 56.8551 5.99988H48.9272L50.6589 8.90466H54.8347L53.1122 11.7284L55.0324 14.9545L53.1792 18.0002H56.5637C57.1078 17.1102 57.9214 15.7333 58.0913 15.4512C58.2079 15.2953 58.2701 15.1055 58.2683 14.9108C58.2665 14.7161 58.2009 14.5274 58.0814 14.3737C57.912 14.0845 57.0056 12.647 56.464 11.762C56.464 11.762 57.9214 9.34714 58.0913 9.06505C58.2079 8.90925 58.27 8.71954 58.2683 8.525C58.2667 8.33046 58.2012 8.14184 58.082 7.98808Z" fill="black"/>
<path d="M50.4562 12.1184C49.9344 12.9706 49.0618 14.3988 48.8983 14.6773C48.7833 14.8253 48.72 15.0071 48.7183 15.1946C48.7165 15.3822 48.7764 15.5651 48.8887 15.7153C49.0525 15.9869 49.9318 17.4265 50.4562 18.2849C50.9803 17.4273 51.8599 15.9877 52.0234 15.7153C52.1356 15.5651 52.1955 15.3822 52.1938 15.1947C52.1922 15.0072 52.129 14.8254 52.0141 14.6773C51.8506 14.3988 50.9777 12.9706 50.4562 12.1184Z" fill="black"/>
<path d="M0 17.995V5.99609H3.93719V17.995H0ZM9.29381 7.90577L11.5581 17.995H7.24917L4.54549 5.99609H6.96218C7.51635 5.98889 8.05406 6.18424 8.4745 6.54538C8.89562 6.89138 9.18495 7.37169 9.29381 7.90577ZM12.1495 17.995V5.99609H16.0867V17.995H12.1495ZM19.0605 10.5591C18.6362 10.5632 18.2188 10.4522 17.8525 10.238C17.4912 10.0291 17.1911 9.72895 16.9823 9.36759C16.7678 9.00133 16.6568 8.58376 16.661 8.15931C16.6561 7.73746 16.7672 7.32237 16.9823 6.95942C17.1933 6.60199 17.4931 6.30509 17.8525 6.09751C18.2189 5.8835 18.6362 5.77251 19.0605 5.77638C19.4822 5.77184 19.8971 5.88292 20.2602 6.09751C20.616 6.30691 20.9127 6.60356 21.122 6.95942C21.3368 7.32248 21.4479 7.73749 21.4433 8.15931C21.4473 8.58372 21.3363 9.00122 21.122 9.36759C20.9149 9.72737 20.6179 10.0273 20.2602 10.238C19.8971 10.453 19.4819 10.5641 19.0599 10.5591H19.0605ZM22.0516 17.995V5.99609H25.9892V17.995H22.0516ZM30.9737 12.5532C30.9848 12.5649 31.0693 12.7029 31.2272 12.9673C31.3851 13.2317 31.5906 13.5697 31.8439 13.9813C32.0974 14.3927 32.3649 14.8293 32.6463 15.291C32.9278 15.7527 33.1926 16.1894 33.4408 16.6008C33.6881 17.0122 33.9697 17.4769 34.2857 17.995H29.9598C29.6893 17.5556 29.4441 17.1585 29.2245 16.8036C29.0048 16.4487 28.7713 16.0656 28.5238 15.6544C28.2758 15.2435 28.0306 14.8435 27.7882 14.4545C27.5458 14.0654 27.3375 13.7246 27.1633 13.4321C26.9883 13.1393 26.8671 12.9421 26.7997 12.8405C26.6325 12.5884 26.5336 12.2973 26.5127 11.9955C26.5294 11.7059 26.6226 11.426 26.7828 11.1841C26.8504 11.0714 26.9743 10.8714 27.1545 10.5841C27.3348 10.2968 27.546 9.95605 27.7882 9.56172C28.0304 9.16739 28.2756 8.7646 28.5238 8.35337C28.772 7.94214 29.0056 7.55623 29.2245 7.1957C29.4445 6.83555 29.6897 6.43558 29.9598 5.99581H34.2857L30.9396 11.4545C30.8361 11.6166 30.7777 11.8033 30.7706 11.9955C30.7818 12.1973 30.8522 12.3913 30.9731 12.5532H30.9737Z" fill="black"/>
</svg>

<svg xmlns="http://www.w3.org/2000/svg" viewBox="0 0 103 24"><path fill="#000" d="M71.046 13.249a5.699 5.699 0 0 1-.178 1.495c-.1.398-.287.767-.55 1.082a2.298 2.298 0 0 1-.97.65 4.216 4.216 0 0 1-1.445.22 4.326 4.326 0 0 1-1.674-.296 2.117 2.117 0 0 1-1.081-.997 4.086 4.086 0 0 1-.372-1.9V6h-1.774v7.79c-.02.702.11 1.399.38 2.046.23.533.59 1.001 1.048 1.36.46.351.986.607 1.546.752a7.13 7.13 0 0 0 1.859.236 5.56 5.56 0 0 0 2.72-.591 3.711 3.711 0 0 0 1.58-1.656c.36-.784.536-1.64.516-2.501V6h-1.606v7.248ZM78.7 9.32a3.307 3.307 0 0 0-.895.39 4.4 4.4 0 0 0-.795.633c-.04.04-.078.084-.118.126V9.21l-1.723.254v8.533h1.723v-6.383c.128-.09.26-.173.397-.25.17-.092.344-.174.524-.244.175-.068.352-.127.532-.178a3.607 3.607 0 0 1 1.183-.126l.203-1.588a3.207 3.207 0 0 0-1.03.092ZM88.552 8.99l-.947 1a3.917 3.917 0 0 0-.388-.256 4.622 4.622 0 0 0-2.298-.54 4.619 4.619 0 0 0-2.307.557 3.896 3.896 0 0 0-1.537 1.572 4.963 4.963 0 0 0-.55 2.4 5.109 5.109 0 0 0 .524 2.39c.097.184.208.36.333.526l-.941 1.004.777.71.901-.975c.13.097.266.186.408.265.69.362 1.46.542 2.24.523.809.017 1.609-.175 2.323-.557a4.007 4.007 0 0 0 1.58-1.589 4.923 4.923 0 0 0 .574-2.433 4.832 4.832 0 0 0-.532-2.324c-.1-.184-.215-.36-.343-.525l.977-1.038-.794-.71Zm-5.898 2.924c.19-.423.506-.777.904-1.014.421-.233.897-.35 1.378-.338.382-.008.762.064 1.115.212.19.085.365.2.52.34l-3.932 4.246a4.374 4.374 0 0 1-.306-1.739c-.02-.586.09-1.168.321-1.707Zm4.462 3.481a2.367 2.367 0 0 1-.921 1.056 2.58 2.58 0 0 1-1.344.347 2.444 2.444 0 0 1-1.326-.355 2.059 2.059 0 0 1-.314-.248l3.933-4.247c.058.135.108.273.149.414.111.41.165.834.16 1.259.02.61-.095 1.216-.338 1.775v-.001ZM94.939 9.32a3.31 3.31 0 0 0-.896.39c-.288.179-.554.392-.794.633-.04.04-.079.084-.118.126V9.21l-1.724.254v8.533h1.724v-6.383c.128-.09.26-.173.397-.25.17-.092.344-.174.524-.244.174-.068.352-.127.532-.178a3.634 3.634 0 0 1 1.183-.126l.203-1.588a3.207 3.207 0 0 0-1.031.092ZM102.273 16.587a7.373 7.373 0 0 1-.262.05l-.287.05a2.577 2.577 0 0 1-.279.034c-.09.006-.175.009-.254.009a1.702 1.702 0 0 1-.752-.152 1.085 1.085 0 0 1-.481-.448 1.424 1.424 0 0 1-.17-.718v-4.68h2.383l.186-1.353h-2.568V6.71l-1.724.608V9.38h-1.301l-.186 1.352h1.487v5.036c-.007.336.044.67.152.988.087.252.222.484.398.685.16.178.356.322.574.422.224.103.459.177.701.22.24.044.483.066.727.067.18 0 .357-.005.532-.016a5.33 5.33 0 0 0 .482-.051 7.679 7.679 0 0 0 .743-.152l.102-1.403a1.332 1.332 0 0 1-.203.06ZM46.48 6h-3.703s2.105 3.455 2.129 3.498a.582.582 0 0 1 .013.706l-2.142 3.511h3.704s1.787-2.92 2.031-3.326a.886.886 0 0 0-.01-1.073c-.263-.449-.264-.448-2.021-3.316ZM42.299 6H39V18h3.299V6ZM58.082 7.988A325.208 325.208 0 0 0 56.855 6h-7.928l1.732 2.905h4.176l-1.723 2.823 1.92 3.226L53.18 18h3.385c.544-.89 1.357-2.267 1.527-2.549a.888.888 0 0 0-.01-1.077c-.169-.29-1.075-1.727-1.617-2.612l1.627-2.697a.888.888 0 0 0-.009-1.077Z"/><path fill="#000" d="M50.456 12.118c-.522.853-1.394 2.28-1.558 2.56a.856.856 0 0 0-.01 1.037l1.568 2.57a931.34 931.34 0 0 0 1.567-2.57.857.857 0 0 0-.009-1.038 390.06 390.06 0 0 0-1.558-2.559ZM0 17.995V5.996h3.937v11.999H0Zm9.294-10.09 2.264 10.09H7.25L4.545 5.996h2.417a2.276 2.276 0 0 1 1.513.55c.42.345.71.826.819 1.36Zm2.855 10.09V5.996h3.938v11.999h-3.938Zm6.912-7.436a2.382 2.382 0 0 1-2.4-2.4 2.301 2.301 0 0 1 .321-1.2 2.41 2.41 0 0 1 3.278-.861c.356.209.653.506.862.861.215.363.326.778.321 1.2a2.35 2.35 0 0 1-.321 1.209 2.4 2.4 0 0 1-.862.87 2.302 2.302 0 0 1-1.2.321Zm2.99 7.436V5.996h3.938v11.999h-3.937Zm8.923-5.442c.01.012.095.15.253.414.158.265.364.603.617 1.014a315.936 315.936 0 0 1 1.597 2.62c.247.411.529.876.845 1.394H29.96c-.27-.44-.516-.837-.736-1.191-.22-.355-.453-.738-.7-1.15-.248-.41-.493-.81-.736-1.2-.242-.389-.45-.73-.625-1.022-.175-.293-.296-.49-.363-.591a1.747 1.747 0 0 1-.287-.845c.016-.29.11-.57.27-.812.067-.113.191-.313.371-.6s.392-.628.634-1.022c.242-.395.488-.797.736-1.209l.7-1.157.736-1.2h4.326l-3.346 5.458a1.08 1.08 0 0 0-.17.541c.012.202.082.396.203.558Z"/></svg>
